X: 20084
M: 6/8
L: 1/8
K: D
ddd d2f | a2f e2d | e2d e2d | e2d e2A |\
f2e f2e | f2e fga | d2c B2b | a2c d2 |]


